akrata-icons-anarchy/apps/scalable/teamviewer.svg

<?xml version="1.0" encoding="UTF-8" standalone="no"?>
<svg
   width="128"
   height="128"
   viewBox="0 0 128 128"
   fill="none"
   version="1.1"
   id="svg17"
   sodipodi:docname="teamviewer.svg"
   inkscape:version="1.4.2 (ebf0e940d0, 2025-05-08)"
   xmlns:inkscape="http://www.inkscape.org/namespaces/inkscape"
   xmlns:sodipodi="http://sodipodi.sourceforge.net/DTD/sodipodi-0.dtd"
   xmlns="http://www.w3.org/2000/svg"
   xmlns:svg="http://www.w3.org/2000/svg">
  <sodipodi:namedview
     id="namedview17"
     pagecolor="#ffffff"
     bordercolor="#000000"
     borderopacity="0.25"
     inkscape:showpageshadow="2"
     inkscape:pageopacity="0.0"
     inkscape:pagecheckerboard="0"
     inkscape:deskcolor="#d1d1d1"
     inkscape:zoom="3.0273009"
     inkscape:cx="42.116725"
     inkscape:cy="53.843343"
     inkscape:window-width="1366"
     inkscape:window-height="713"
     inkscape:window-x="0"
     inkscape:window-y="18"
     inkscape:window-maximized="0"
     inkscape:current-layer="svg17" />
  <path
     d="M60.2532 6.13439C70.2893 5.43857 80.4655 7.45914 89.5112 11.8616C87.1294 13.4673 85.0754 15.4812 83.2624 17.7025C73.4873 13.6346 62.4744 12.9388 52.1709 15.2604C53.3998 13.1117 55.1495 11.4018 56.9019 9.68931C58.0688 8.54893 59.2369 7.4074 60.2532 6.13439Z"
     fill="url(#paint0_linear_618_98)"
     id="path1" />
  <path
     d="M15.1376 32.7766C24.8457 17.4283 42.0881 7.13798 60.2532 6.13439C59.2369 7.4074 58.0688 8.54893 56.9019 9.68931C55.1495 11.4018 53.3998 13.1117 52.1709 15.2604C42.4895 17.7226 33.5234 22.9882 26.8595 30.4483C18.3356 39.6947 13.7259 52.2798 13.8931 64.8314C10.7832 66.5166 8.92372 69.567 7.13565 72.5002C6.99263 72.7349 6.85007 72.9687 6.70736 73.2011C4.50615 59.2916 7.47679 44.6123 15.1376 32.7766Z"
     fill="url(#paint1_linear_618_98)"
     id="path2" />
  <path
     d="M89.5112 11.8616C87.1294 13.4673 85.0754 15.4812 83.2624 17.7025C86.0389 18.8533 88.6818 20.2985 91.1643 21.9845C98.1085 26.3534 103.836 32.5887 107.85 39.7274C114.373 51.3021 115.859 65.5272 112.092 78.2458C109.128 88.4226 102.758 97.5282 94.3278 103.938C84.7 111.344 72.2956 114.951 60.1925 113.981C57.737 115.801 55.4288 118.122 55.2949 121.374C64.2069 122.612 73.4333 122.077 81.9904 119.206C96.9104 114.442 109.616 103.282 116.347 89.1515C120.997 79.604 122.736 68.7856 121.827 58.2344C120.977 49.9848 118.321 41.9829 114.233 34.7837C108.419 24.9686 99.7544 16.8862 89.5112 11.8616Z"
     fill="url(#paint2_linear_618_98)"
     id="path3" />
  <path
     d="M7.13565 72.5002C6.99263 72.7349 6.85007 72.9687 6.70736 73.2011C8.23282 82.5814 12.027 91.5937 17.8077 99.1471C21.775 104.312 26.5585 108.862 31.9977 112.448C32.2108 112.587 32.4234 112.728 32.6359 112.869C33.3641 113.35 34.0934 113.832 34.8547 114.262C41.1974 117.774 48.0958 120.357 55.2949 121.374C55.4288 118.122 57.737 115.801 60.1925 113.981C51.9029 113.358 43.7802 110.649 36.8153 106.106C31.6569 102.754 27.1545 98.4248 23.4881 93.4872C18.8849 87.1046 15.747 79.6442 14.5829 71.8497C14.1948 69.5279 13.9466 67.18 13.8931 64.8314C10.7832 66.5166 8.92372 69.567 7.13565 72.5002Z"
     fill="url(#paint3_linear_618_98)"
     id="path4" />
  <path
     d="M 89.5112,11.8616 C 80.4655,7.45914 70.2893,5.43857 60.2532,6.13439 m 29.258,5.72721 c -2.3818,1.6057 -4.4358,3.6196 -6.2488,5.8409 m 6.2488,-5.8409 c 10.2432,5.0246 18.9078,13.107 24.7218,22.9221 M 60.2532,6.13439 C 59.2369,7.4074 58.0688,8.54893 56.9019,9.68931 55.1495,11.4018 53.3998,13.1117 52.1709,15.2604 M 60.2532,6.13439 C 42.0881,7.13798 24.8457,17.4283 15.1376,32.7766 7.47679,44.6123 4.50615,59.2916 6.70736,73.2011 M 83.2624,17.7025 C 73.4873,13.6346 62.4744,12.9388 52.1709,15.2604 m 31.0915,2.4421 c 2.7765,1.1508 5.4194,2.596 7.9019,4.282 6.9442,4.3689 12.6717,10.6042 16.6857,17.7429 6.523,11.5747 8.009,25.7998 4.242,38.5184 -2.964,10.1768 -9.334,19.2824 -17.7642,25.6922 -9.6278,7.406 -22.0322,11.013 -34.1353,10.043 M 52.1709,15.2604 C 42.4895,17.7226 33.5234,22.9882 26.8595,30.4483 18.3356,39.6947 13.7259,52.2798 13.8931,64.8314 m 0,0 c -3.1099,1.6852 -4.96938,4.7356 -6.75745,7.6688 -0.14302,0.2347 -0.28558,0.4685 -0.42829,0.7009 m 7.18574,-8.3697 c 0.0535,2.3486 0.3017,4.6965 0.6898,7.0183 1.1641,7.7945 4.302,15.2549 8.9052,21.6375 3.6664,4.9376 8.1688,9.2668 13.3272,12.6188 6.9649,4.543 15.0876,7.252 23.3772,7.875 M 6.70736,73.2011 c 1.52546,9.3803 5.31964,18.3926 11.10034,25.946 3.9673,5.1649 8.7508,9.7149 14.19,13.3009 0.2131,0.139 0.4257,0.28 0.6382,0.421 0.7282,0.481 1.4575,0.963 2.2188,1.393 6.3427,3.512 13.2411,6.095 20.4402,7.112 m 4.8976,-7.393 c -2.4555,1.82 -4.7637,4.141 -4.8976,7.393 m 0,0 c 8.912,1.238 18.1384,0.703 26.6955,-2.168 14.92,-4.764 27.6256,-15.924 34.3566,-30.0545 4.65,-9.5475 6.389,-20.3659 5.48,-30.9171 -0.85,-8.2496 -3.506,-16.2515 -7.594,-23.4507 m 0,0 c -0.316,-0.103 -0.619,-0.1647 -0.91,-0.1899"
     stroke="url(#paint4_linear_618_98)"
     stroke-width="4"
     id="path5"
     sodipodi:nodetypes="cccccccccccccccccccccccccccccccccccccccccccccc" />
  <path
     d="M75.6215 47.7301C76.3236 47.041 77.5219 46.867 78.3043 47.5428C79.7869 48.5611 81.2108 49.661 82.6357 50.7619C83.7574 51.6284 84.8797 52.4954 86.0318 53.3235C87.9684 54.8219 89.9281 56.292 91.8882 57.7619C93.8489 59.2324 95.8097 60.703 97.747 62.202C98.478 62.6534 98.751 63.4504 99.0176 64.2285C99.0828 64.4189 99.1477 64.6084 99.2188 64.7912C95.8267 67.5064 92.3529 70.115 88.8793 72.7233C86.1391 74.781 83.3986 76.8389 80.699 78.9485C79.3612 80.0326 77.8492 80.882 76.2097 81.431C75.1045 80.1758 75.0779 78.6322 75.0511 77.0824C75.0397 76.4181 75.0282 75.7527 74.9318 75.1083C74.8715 74.9008 74.7829 74.5913 74.6942 74.2818C74.6056 73.9724 74.517 73.663 74.4567 73.4555L74.4416 73.4546C73.2158 73.3815 71.9832 73.3081 70.7568 73.2884C69.3902 73.2884 68.0236 73.2972 66.657 73.3061C62.8453 73.3307 59.0335 73.3554 55.2217 73.1883L55.114 73.2222C54.4306 73.438 53.7215 73.6619 53.1875 74.1581C52.9191 75.3358 52.8421 76.5401 52.7651 77.7457C52.6981 78.7936 52.6311 79.8424 52.4382 80.8756C52.1781 80.8756 51.9097 80.9004 51.6398 80.9253C50.8333 80.9999 50.0139 81.0757 49.3672 80.4942C47.7742 79.3862 46.2389 78.2018 44.7031 77.0172C43.1879 75.8484 41.6724 74.6794 40.1007 73.583C39.7185 73.2944 39.3363 72.9959 38.9588 72.701L38.9576 72.7002L38.8027 72.5792C37.7129 71.7369 36.6067 70.9158 35.5005 70.0948C33.6186 68.698 31.737 67.3014 29.9378 65.8015C28.6733 65.0321 28.7201 63.0784 30.0114 62.3559C33.512 59.6579 37.0416 56.995 40.5703 54.3329L40.5728 54.3309C43.396 52.2009 46.2193 50.0709 49.0261 47.9242C50.0096 46.8738 52.2778 46.76 52.6726 48.4059C52.9158 49.6179 52.9382 50.8535 52.9606 52.0881C52.974 52.8232 52.9873 53.5578 53.0472 54.2869C55.9939 55.1378 59.0666 55.0328 62.1403 54.9278C63.9729 54.8652 65.8058 54.8026 67.6126 54.9425C68.329 54.9174 69.048 54.9266 69.7668 54.9358C71.1553 54.9535 72.5441 54.9711 73.9151 54.7419C75.2284 53.8813 75.1556 52.443 75.0818 50.9866C75.0225 49.8159 74.9626 48.6335 75.6215 47.7301Z"
     fill="url(#paint5_linear_618_98)"
     id="path6" />
  <defs
     id="defs17">
    <linearGradient
       id="paint0_linear_618_98"
       x1="64.0298"
       y1="6"
       x2="64.0298"
       y2="122"
       gradientUnits="userSpaceOnUse">
      <stop
         offset="0.119792"
         stop-color="#7730F6"
         id="stop6"
         style="stop-color:#89b4fa;stop-opacity:1;" />
      <stop
         offset="0.84375"
         stop-color="#39D9FD"
         id="stop7"
         style="stop-color:#89b4fa;stop-opacity:1;" />
    </linearGradient>
    <linearGradient
       id="paint1_linear_618_98"
       x1="64.0298"
       y1="6"
       x2="64.0298"
       y2="122"
       gradientUnits="userSpaceOnUse">
      <stop
         offset="0.119792"
         stop-color="#7730F6"
         id="stop8"
         style="stop-color:#89b4fa;stop-opacity:1;" />
      <stop
         offset="0.84375"
         stop-color="#39D9FD"
         id="stop9"
         style="stop-color:#89b4fa;stop-opacity:1;" />
    </linearGradient>
    <linearGradient
       id="paint2_linear_618_98"
       x1="64.0298"
       y1="6"
       x2="64.0298"
       y2="122"
       gradientUnits="userSpaceOnUse">
      <stop
         offset="0.119792"
         stop-color="#7730F6"
         id="stop10"
         style="stop-color:#89b4fa;stop-opacity:1;" />
      <stop
         offset="0.84375"
         stop-color="#39D9FD"
         id="stop11"
         style="stop-color:#89b4fa;stop-opacity:1;" />
    </linearGradient>
    <linearGradient
       id="paint3_linear_618_98"
       x1="64.0298"
       y1="6"
       x2="64.0298"
       y2="122"
       gradientUnits="userSpaceOnUse">
      <stop
         offset="0.119792"
         stop-color="#7730F6"
         id="stop12"
         style="stop-color:#89b4fa;stop-opacity:1;" />
      <stop
         offset="0.84375"
         stop-color="#39D9FD"
         id="stop13"
         style="stop-color:#89b4fa;stop-opacity:1;" />
    </linearGradient>
    <linearGradient
       id="paint4_linear_618_98"
       x1="64.0298"
       y1="6"
       x2="64.0298"
       y2="122"
       gradientUnits="userSpaceOnUse">
      <stop
         offset="0.119792"
         stop-color="#7730F6"
         id="stop14"
         style="stop-color:#89b4fa;stop-opacity:1;" />
      <stop
         offset="0.84375"
         stop-color="#39D9FD"
         id="stop15"
         style="stop-color:#89b4fa;stop-opacity:1;" />
    </linearGradient>
    <linearGradient
       id="paint5_linear_618_98"
       x1="29.0156"
       y1="81.431"
       x2="85.1693"
       y2="31.3596"
       gradientUnits="userSpaceOnUse">
      <stop
         stop-color="#a78bfa"
         id="stop16"
         offset="0"
         style="stop-color:#89b4fa;stop-opacity:1;" />
      <stop
         offset="1"
         stop-color="#a78bfa"
         id="stop17"
         style="stop-color:#89b4fa;stop-opacity:1;" />
    </linearGradient>
  </defs>
</svg>

<svg width="128" height="128" viewBox="0 0 128 128" fill="none" xmlns="http://www.w3.org/2000/svg">
<path d="M60.2532 6.13439C70.2893 5.43857 80.4655 7.45914 89.5112 11.8616C87.1294 13.4673 85.0754 15.4812 83.2624 17.7025C73.4873 13.6346 62.4744 12.9388 52.1709 15.2604C53.3998 13.1117 55.1495 11.4018 56.9019 9.68931C58.0688 8.54893 59.2369 7.4074 60.2532 6.13439Z" fill="url(#paint0_linear_618_98)"/>
<path d="M15.1376 32.7766C24.8457 17.4283 42.0881 7.13798 60.2532 6.13439C59.2369 7.4074 58.0688 8.54893 56.9019 9.68931C55.1495 11.4018 53.3998 13.1117 52.1709 15.2604C42.4895 17.7226 33.5234 22.9882 26.8595 30.4483C18.3356 39.6947 13.7259 52.2798 13.8931 64.8314C10.7832 66.5166 8.92372 69.567 7.13565 72.5002C6.99263 72.7349 6.85007 72.9687 6.70736 73.2011C4.50615 59.2916 7.47679 44.6123 15.1376 32.7766Z" fill="url(#paint1_linear_618_98)"/>
<path d="M89.5112 11.8616C87.1294 13.4673 85.0754 15.4812 83.2624 17.7025C86.0389 18.8533 88.6818 20.2985 91.1643 21.9845C98.1085 26.3534 103.836 32.5887 107.85 39.7274C114.373 51.3021 115.859 65.5272 112.092 78.2458C109.128 88.4226 102.758 97.5282 94.3278 103.938C84.7 111.344 72.2956 114.951 60.1925 113.981C57.737 115.801 55.4288 118.122 55.2949 121.374C64.2069 122.612 73.4333 122.077 81.9904 119.206C96.9104 114.442 109.616 103.282 116.347 89.1515C120.997 79.604 122.736 68.7856 121.827 58.2344C120.977 49.9848 118.321 41.9829 114.233 34.7837C108.419 24.9686 99.7544 16.8862 89.5112 11.8616Z" fill="url(#paint2_linear_618_98)"/>
<path d="M7.13565 72.5002C6.99263 72.7349 6.85007 72.9687 6.70736 73.2011C8.23282 82.5814 12.027 91.5937 17.8077 99.1471C21.775 104.312 26.5585 108.862 31.9977 112.448C32.2108 112.587 32.4234 112.728 32.6359 112.869C33.3641 113.35 34.0934 113.832 34.8547 114.262C41.1974 117.774 48.0958 120.357 55.2949 121.374C55.4288 118.122 57.737 115.801 60.1925 113.981C51.9029 113.358 43.7802 110.649 36.8153 106.106C31.6569 102.754 27.1545 98.4248 23.4881 93.4872C18.8849 87.1046 15.747 79.6442 14.5829 71.8497C14.1948 69.5279 13.9466 67.18 13.8931 64.8314C10.7832 66.5166 8.92372 69.567 7.13565 72.5002Z" fill="url(#paint3_linear_618_98)"/>
<path d="M89.5112 11.8616C80.4655 7.45914 70.2893 5.43857 60.2532 6.13439M89.5112 11.8616C87.1294 13.4673 85.0754 15.4812 83.2624 17.7025M89.5112 11.8616C99.7544 16.8862 108.419 24.9686 114.233 34.7837M60.2532 6.13439C59.2369 7.4074 58.0688 8.54893 56.9019 9.68931C55.1495 11.4018 53.3998 13.1117 52.1709 15.2604M60.2532 6.13439C42.0881 7.13798 24.8457 17.4283 15.1376 32.7766C7.47679 44.6123 4.50615 59.2916 6.70736 73.2011M83.2624 17.7025C73.4873 13.6346 62.4744 12.9388 52.1709 15.2604M83.2624 17.7025C86.0389 18.8533 88.6818 20.2985 91.1643 21.9845C98.1085 26.3534 103.836 32.5887 107.85 39.7274C114.373 51.3021 115.859 65.5272 112.092 78.2458C109.128 88.4226 102.758 97.5282 94.3278 103.938C84.7 111.344 72.2956 114.951 60.1925 113.981M52.1709 15.2604C42.4895 17.7226 33.5234 22.9882 26.8595 30.4483C18.3356 39.6947 13.7259 52.2798 13.8931 64.8314M13.8931 64.8314C10.7832 66.5166 8.92372 69.567 7.13565 72.5002C6.99263 72.7349 6.85007 72.9687 6.70736 73.2011M13.8931 64.8314C13.9466 67.18 14.1948 69.5279 14.5829 71.8497C15.747 79.6442 18.8849 87.1046 23.4881 93.4872C27.1545 98.4248 31.6569 102.754 36.8153 106.106C43.7802 110.649 51.9029 113.358 60.1925 113.981M6.70736 73.2011C8.23282 82.5814 12.027 91.5937 17.8077 99.1471C21.775 104.312 26.5585 108.862 31.9977 112.448C32.2108 112.587 32.4234 112.728 32.6359 112.869C33.3641 113.35 34.0934 113.832 34.8547 114.262C41.1974 117.774 48.0958 120.357 55.2949 121.374M60.1925 113.981C57.737 115.801 55.4288 118.122 55.2949 121.374M55.2949 121.374C64.2069 122.612 73.4333 122.077 81.9904 119.206C96.9104 114.442 109.616 103.282 116.347 89.1515C120.997 79.604 122.736 68.7856 121.827 58.2344C120.977 49.9848 118.321 41.9829 114.233 34.7837M114.233 34.7837C113.917 34.6807 113.614 34.619 113.323 34.5938" stroke="url(#paint4_linear_618_98)" stroke-width="4"/>
<path d="M75.6215 47.7301C76.3236 47.041 77.5219 46.867 78.3043 47.5428C79.7869 48.5611 81.2108 49.661 82.6357 50.7619C83.7574 51.6284 84.8797 52.4954 86.0318 53.3235C87.9684 54.8219 89.9281 56.292 91.8882 57.7619C93.8489 59.2324 95.8097 60.703 97.747 62.202C98.478 62.6534 98.751 63.4504 99.0176 64.2285C99.0828 64.4189 99.1477 64.6084 99.2188 64.7912C95.8267 67.5064 92.3529 70.115 88.8793 72.7233C86.1391 74.781 83.3986 76.8389 80.699 78.9485C79.3612 80.0326 77.8492 80.882 76.2097 81.431C75.1045 80.1758 75.0779 78.6322 75.0511 77.0824C75.0397 76.4181 75.0282 75.7527 74.9318 75.1083C74.8715 74.9008 74.7829 74.5913 74.6942 74.2818C74.6056 73.9724 74.517 73.663 74.4567 73.4555L74.4416 73.4546C73.2158 73.3815 71.9832 73.3081 70.7568 73.2884C69.3902 73.2884 68.0236 73.2972 66.657 73.3061C62.8453 73.3307 59.0335 73.3554 55.2217 73.1883L55.114 73.2222C54.4306 73.438 53.7215 73.6619 53.1875 74.1581C52.9191 75.3358 52.8421 76.5401 52.7651 77.7457C52.6981 78.7936 52.6311 79.8424 52.4382 80.8756C52.1781 80.8756 51.9097 80.9004 51.6398 80.9253C50.8333 80.9999 50.0139 81.0757 49.3672 80.4942C47.7742 79.3862 46.2389 78.2018 44.7031 77.0172C43.1879 75.8484 41.6724 74.6794 40.1007 73.583C39.7185 73.2944 39.3363 72.9959 38.9588 72.701L38.9576 72.7002L38.8027 72.5792C37.7129 71.7369 36.6067 70.9158 35.5005 70.0948C33.6186 68.698 31.737 67.3014 29.9378 65.8015C28.6733 65.0321 28.7201 63.0784 30.0114 62.3559C33.512 59.6579 37.0416 56.995 40.5703 54.3329L40.5728 54.3309C43.396 52.2009 46.2193 50.0709 49.0261 47.9242C50.0096 46.8738 52.2778 46.76 52.6726 48.4059C52.9158 49.6179 52.9382 50.8535 52.9606 52.0881C52.974 52.8232 52.9873 53.5578 53.0472 54.2869C55.9939 55.1378 59.0666 55.0328 62.1403 54.9278C63.9729 54.8652 65.8058 54.8026 67.6126 54.9425C68.329 54.9174 69.048 54.9266 69.7668 54.9358C71.1553 54.9535 72.5441 54.9711 73.9151 54.7419C75.2284 53.8813 75.1556 52.443 75.0818 50.9866C75.0225 49.8159 74.9626 48.6335 75.6215 47.7301Z" fill="url(#paint5_linear_618_98)"/>
<defs>
<linearGradient id="paint0_linear_618_98" x1="64.0298" y1="6" x2="64.0298" y2="122" gradientUnits="userSpaceOnUse">
<stop offset="0.119792" stop-color="#7730F6"/>
<stop offset="0.84375" stop-color="#39D9FD"/>
</linearGradient>
<linearGradient id="paint1_linear_618_98" x1="64.0298" y1="6" x2="64.0298" y2="122" gradientUnits="userSpaceOnUse">
<stop offset="0.119792" stop-color="#7730F6"/>
<stop offset="0.84375" stop-color="#39D9FD"/>
</linearGradient>
<linearGradient id="paint2_linear_618_98" x1="64.0298" y1="6" x2="64.0298" y2="122" gradientUnits="userSpaceOnUse">
<stop offset="0.119792" stop-color="#7730F6"/>
<stop offset="0.84375" stop-color="#39D9FD"/>
</linearGradient>
<linearGradient id="paint3_linear_618_98" x1="64.0298" y1="6" x2="64.0298" y2="122" gradientUnits="userSpaceOnUse">
<stop offset="0.119792" stop-color="#7730F6"/>
<stop offset="0.84375" stop-color="#39D9FD"/>
</linearGradient>
<linearGradient id="paint4_linear_618_98" x1="64.0298" y1="6" x2="64.0298" y2="122" gradientUnits="userSpaceOnUse">
<stop offset="0.119792" stop-color="#7730F6"/>
<stop offset="0.84375" stop-color="#39D9FD"/>
</linearGradient>
<linearGradient id="paint5_linear_618_98" x1="29.0156" y1="81.431" x2="85.1693" y2="31.3596" gradientUnits="userSpaceOnUse">
<stop stop-color="#89b4fa"/>
<stop offset="1" stop-color="#89b4fa"/>
</linearGradient>
</defs>
</svg>
